assets/icons/envelope-form.svg

<?xml version="1.0" encoding="UTF-8"?>
<svg width="34px" height="26px" viewBox="0 0 34 26" version="1.1" xmlns="http://www.w3.org/2000/svg" xmlns:xlink="http://www.w3.org/1999/xlink">
    <!-- Generator: Sketch 59.1 (86144) - https://sketch.com -->
    <title>user</title>
    <desc>Created with Sketch.</desc>
    <defs>
        <path d="M36.0351563,15.7552083 C36.2890626,15.5533854 36.6666668,15.7421875 36.6666668,16.0611979 L36.6666668,29.375 C36.6666668,31.1002605 35.2669272,32.5000001 33.5416667,32.5000001 L6.45833327,32.5000001 C4.73307284,32.5000001 3.33333325,31.1002605 3.33333325,29.375 L3.33333325,16.0677083 C3.33333325,15.7421875 3.704427,15.5598958 3.96484367,15.7617187 C5.42317701,16.8945312 7.35677077,18.3333333 13.9973958,23.1575521 C15.3710937,24.1601563 17.6888021,26.2695313 20,26.2565104 C22.3242188,26.2760417 24.6875,24.1210938 26.0091146,23.1575521 C32.6497396,18.3333333 34.576823,16.8880208 36.0351563,15.7552083 Z M20,24.1666667 C21.5104167,24.1927084 23.6848959,22.265625 24.7786459,21.4713542 C33.4179688,15.2018229 34.0755209,14.6549479 36.0677084,13.0924479 C36.4453126,12.7994791 36.6666668,12.34375 36.6666668,11.8619791 L36.6666668,10.625 C36.6666668,8.89973953 35.2669272,7.49999994 33.5416667,7.49999994 L6.45833327,7.49999994 C4.73307284,7.49999994 3.33333325,8.89973953 3.33333325,10.625 L3.33333325,11.8619791 C3.33333325,12.34375 3.55468742,12.7929687 3.93229159,13.0924479 C5.9244791,14.6484375 6.58203118,15.2018229 15.2213541,21.4713542 C16.3151041,22.265625 18.4895833,24.1927084 20,24.1666667 Z" id="path-1"></path>
    </defs>
    <g id="Page-1" stroke="none" stroke-width="1" fill="none" fill-rule="evenodd">
        <g id="quote_form" transform="translate(-969.000000, -354.000000)">
            <g id="form_email" transform="translate(422.000000, 338.000000)">
                <g id="envelope" transform="translate(544.000000, 9.000000)">
                    <mask id="mask-2" fill="white">
                        <use xlink:href="#path-1"></use>
                    </mask>
                    <g fill-rule="nonzero"></g>
                    <g id="color/white-primary" mask="url(#mask-2)" fill="#CACACA" fill-rule="evenodd">
                        <rect id="Rectangle" x="0" y="0" width="40" height="40"></rect>
                    </g>
                </g>
            </g>
        </g>
    </g>
</svg>

<svg xmlns="http://www.w3.org/2000/svg" xmlns:xlink="http://www.w3.org/1999/xlink" width="34" height="26" viewBox="0 0 34 26"><defs><path id="a" d="M36.035 15.755a.392.392 0 0 1 .632.306v13.314c0 1.725-1.4 3.125-3.125 3.125H6.458a3.126 3.126 0 0 1-3.125-3.125V16.068a.39.39 0 0 1 .632-.306c1.458 1.133 3.392 2.571 10.032 7.396C15.371 24.16 17.69 26.27 20 26.257c2.324.019 4.688-2.136 6.01-3.1 6.64-4.824 8.567-6.269 10.025-7.402zM20 24.167c1.51.026 3.685-1.901 4.779-2.696 8.639-6.27 9.297-6.816 11.289-8.379.377-.293.599-.748.599-1.23v-1.237c0-1.725-1.4-3.125-3.125-3.125H6.458a3.126 3.126 0 0 0-3.125 3.125v1.237c0 .482.222.931.6 1.23 1.991 1.556 2.649 2.11 11.288 8.38 1.094.794 3.269 2.72 4.779 2.695z"/></defs><g fill="none" fill-rule="evenodd" transform="translate(-3 -7)"><mask id="b" fill="#fff"><use xlink:href="#a"/></mask><g fill="#CACACA" mask="url(#b)"><path d="M0 0h40v40H0z"/></g></g></svg>
